X: 618
P: Longways for as many as will
M: C|
L: 1/8
K: F
V: 1
c2 |\
|: g2 |\
c2c2 c2c2 | g2e2 b4 | cdef g2a2 | g2c2 c2f2 |\
d2c2 f2B2 | B2A2 d2F2 | EFG2 C2E2 | F6 :|
V: 2 clef=bass middle=d
z2 |\
f2F2 A2F2 | f4 a2f2 | a4 f4 | c2d2 e2c2 |\
f2F2 A2F2 | f4 a2f2 | g4 G4 | c6 :|
|: z2 |\
c'2c2 e2c2 | c2c2 c2c2 | e2c2 e2f2 | e2g2 c'2a2 |\
b2a2 d'4 | d'2c'2 b2ab | c'4 c4 | f2c2 F2 :|

